X:1
T:Title
%%score { ( 1 5 6 ) | ( 2 3 4 ) }
L:1/8
Q:1/4=69
M:2/4
K:F
V:1 treble nm="Grand Piano"
V:5 treble 
V:6 treble 
V:2 bass 
V:3 bass 
V:4 bass 
V:1
 AA BA | [CFA][EG] GC | .[B,G]2 AG | GF F2 | cc dc | [Ac]B BC | [GB]B cB | [GB]A A2 | cd cd | %9
w: Chas.~H.~Gabriel * * *|||||||||
 z2 B2 | .B2 z2 | [GB]A A2 | AB AB | AG dd | cc c[DFB] | [CFA]G F2 | cc [Fc]2 | z2 B2[K:bass] | %18
w: |||||||||
 [GB][Ac] [GB][Ac] | z2 A2[K:bass] | z2 d2[K:bass] | [Fc][EBc] [EAc]2 | .[C_EFc]2 [DG][DGB] | %23
w: |||||
 [CFA][CEG] [F,A,CF]2 |] %24
w: |
V:2
 C2 DC | z2 .E2 | z[K:treble] G C[K:bass]B, | B,A, A,2 | [F,F]2- [F,-B,F-][F,A,F] | %5
 z[K:treble] G .G2 | z[K:treble] G AG | z F F2 | [F,A,_EF]4 | z2 z ^C | z[K:treble] c Bc | %11
 z2 F2[K:bass] | D,4 | [G,B,D]2 [_A,=B,F]2 | [A,CF][G,B,E] [F,A,F][K:bass]B,, | z [B,CE] [F,A,C]2 | %16
 z2 z/ C3/2- | C4[K:treble] | [C,C]2 [C,C]2 | z[K:treble] F F2 | FF F2 | A,,G,, F,,/A,,/C,/F,/ | %22
 z F B,,G,, | z B, F,,2 |] %24
V:3
 [F,F]4 | z B,3 | C,4[K:treble][K:bass] | [F,C]4 | A,2 z2 | C,4[K:treble] | [C,C]4[K:treble] | %7
 [F,C]4 | x4 | [B,,F,]4 | C,4[K:treble] | z F z[K:bass] _E, | x4 | x4 | x3[K:bass] x | C,2 z2 | %16
 [F,A,F][G,B,E] .[A,C]A,/F,/ | z[K:treble] G G2 | x4 | .[F,C]4[K:treble] | B,4 | x4 | A,,2 z2 | %23
 C,2 z2 |] %24
V:4
 x4 | C,4 | x[K:treble] x2[K:bass] x | x4 | x4 | x[K:treble] x3 | x[K:treble] x3 | x4 | x4 | x4 | %10
 x[K:treble] x3 | F,4[K:bass] | x4 | x4 | x3[K:bass] x | x4 | x4 | .C,4[K:treble] | x4 | %19
 x[K:treble] x3 | x4 | x4 | x4 | x4 |] %24
V:5
 x4 | x4 | E4 | x4 | x4 | C4 | x4 | x4 | x4 | cB z F | [CE]4 | C4 | [CD^F]4 | x4 | x4 | x4 | x4 | %17
 [Ac]B z/[K:bass] E,/.G, | x4 | [GB]A z/[K:bass] F,/G,/A,/ | dd z/[K:bass] F,/D,/B,,/ | x4 | x4 | %23
 x4 |] %24
V:6
 x4 | x4 | x4 | x4 | x4 | x4 | x4 | x4 | x4 | [DF]4 | x4 | x4 | x4 | x4 | x4 | x4 | x4 | %17
 x5/2[K:bass] x3/2 | x4 | x5/2[K:bass] x3/2 | x5/2[K:bass] x3/2 | x4 | x4 | x4 |] %24

